X: 43478
T: Yellow Legs
R: slip jig
M: 9/8
K: Dmajor
FEF DFD G2E|FEF DFD GED|FEF DFD G2E|GEE c2A GED:|
GEG A2D A2D|GDG A2D GED|GDG A2D A2D|GEE c2A GED:|

